X: 553
T:Swans Among the Rushes
M:6/8
L:1/8
S:from Mike Rafferty
R:Jig
Z:Tom Madden
N:Posted to the woodenflute mailing list, July 2002
K:G
|:~g3 agf|gdB e2d|c2c EFG|AGE D3|DGB DGB|dcB c2e|fed cAD|AGF G3:|
|:GBd efg|fdf ecA|GBd efg|FEF ~G3|GBd efg|fdf ecA|~f3 agf|gba ~g3:|
<end>
<start>
